X:1
T:Title
%%score 1 { 2 | 3 }
L:1/8
Q:1/4=107
M:4/4
K:Ab
V:1 treble nm="Grand Piano, Soprano"
V:2 bass nm="Choir Pad, Merced, Asa Hull, 1871"
V:3 bass 
V:1
 [Ec]2 [CE]2 [DF]2 [CE]2 | [FA]2 [GB]2 [Ac]4 | [Ad]2 [Ac]2 [GB]2 A2 | [EG]2 A2 [GB]4 | %4
w: By~Asa~Hull,~1871 * * *||||
 [Ec]2 [Ec]2 [Ec]2 [DB]2 | [CA]2 [EG]2 [DF]4 | [DF]2 [DF]2 [CE]2 AB | [Ac]2 [EB]2 [EA]4- | %8
w: ||||
 [EA]4 z4 |] %9
w: |
V:2
 A,2 A,2 A,2 A,2 | A,2[K:treble] E2 E4 | D2 E2 E2 E2 | D2 C2 E4 | A,2 A,2 A,2 A,2 | A,2 A,2 A,4 | %6
 A,2 A,2 A,2[K:treble] CD | E2 D2 C4- | C4 z4 |] %9
V:3
 A,,2 A,,2 A,,2 A,,2 | F,2 E,2 A,4 | F,2 E,2 D,2 C,2 | B,,2 A,,2 E,4 | z4 A,,2 A,,2 | %5
 A,,2 C,2 D,4 | D,2 D,2 z2 F,2 | E,2 E,2 [A,,A,]4- | [A,,A,]4 z4 |] %9

